packages/icons/src/components/Logo/assets/light/rabbitmq.svg

<svg width="20" height="20" viewBox="0 0 20 20" fill="none" xmlns="http://www.w3.org/2000/svg">
<path d="M18.629 8H12.344C12.1925 7.99994 12.0472 7.93974 11.9401 7.83262C11.833 7.7255 11.7727 7.58024 11.7727 7.42874V0.878532C11.7727 0.393471 11.3793 0 10.8945 0H8.6509C8.16576 0 7.77266 0.393471 7.77266 0.878532V7.38908C7.77266 7.72685 7.49959 8.0014 7.16181 8.00288L5.10213 8.01271C4.76147 8.01455 4.48471 7.73815 4.48537 7.39779L4.49815 0.880009C4.49926 0.394209 4.10579 0 3.61999 0H1.37824C0.893027 0 0.5 0.393471 0.5 0.878532V19.22C0.5 19.6509 0.849078 20 1.27963 20H18.629C19.0599 20 19.409 19.6509 19.409 19.22V8.78C19.409 8.34908 19.0599 8 18.629 8V8ZM15.6817 14.8865C15.6817 15.4512 15.2239 15.9091 14.6592 15.9091H12.8861C12.3214 15.9091 11.8636 15.4512 11.8636 14.8865V13.1134C11.8636 12.5487 12.3214 12.0909 12.8861 12.0909H14.6592C15.2239 12.0909 15.6817 12.5487 15.6817 13.1134V14.8865V14.8865Z" fill="#FF6600"/>
</svg>

<svg xmlns="http://www.w3.org/2000/svg" width="20" height="20" fill="none" viewBox="0 0 20 20">
    <path fill="#f60" d="M18.629 8h-6.285a.57.57 0 0 1-.571-.571V.879A.88.88 0 0 0 10.895 0H8.65a.88.88 0 0 0-.878.879v6.51a.614.614 0 0 1-.611.614l-2.06.01a.614.614 0 0 1-.617-.615L4.498.88A.88.88 0 0 0 3.62 0H1.378A.88.88 0 0 0 .5.879V19.22c0 .43.35.78.78.78h17.349c.43 0 .78-.35.78-.78V8.78a.78.78 0 0 0-.78-.78m-2.947 6.887c0 .564-.458 1.022-1.023 1.022h-1.773a1.023 1.023 0 0 1-1.022-1.023v-1.773c0-.564.457-1.022 1.022-1.022h1.773c.565 0 1.023.458 1.023 1.022z"/>
</svg>
